X:1
T:title
M:4/4
Q:120
L:1/8
R:Reel
K:C
F4 _C2 ^Bb' |  _b3 ^g'2 _B _g' _b' |  _a'4g2 ^G ^d' |  ^f2a'4 ^c _c | e2 ^a'd _E4 | f2 ^f2 _b3 ^a' |  _g'2 ^b' _d'3 ^Ca |  ^g4d' ^F2 _d' | 